X: 1
T: I Have A House Of My Own With A Chimney Built On Top Of It
M: 9/8
L: 1/8
R: slip jig
K: Bmin
|: BAF FEF ~F3 | BAF FEF ~A2c | BAF FEF ~F2A | EFE EFA BAF :|
cec e2c e2e | fec fec ecB | cec e2c e2c | BAB c2B AFE |
cec e2c efa | fec fec ecB | fec ecB c3 | BAB c2B AFE |
